X:1
T:038 - Divino Amor
T:Letra: Mary Shekleton
T:Trad.: Stuart Edmund McNair (1867-1959)
T:Música: Ira David Sankey (1840-1908)
L:1/8
Q:1/4=115
M:4/4
K:C
V:1
G2 | "C"c3 c "(G)"B2 "F"A2 | "C"AG ^FG E3 G | G2 "G"D2 "C"E3 F | AG ^FG E3 G | c3 c "F"dc BA | A2 c2 "C"G3 G | c3 c "G"d3 d | "C"e3 e fe "F#dim"dc | "C/G"c4 "G7"B4 | "C"c6 |]
w: 1.~Quem po-deo teu i-men-soa-mor con-tar, O Sal-va-dor Je-sus, ees-qua-dri-nhar Seus a-li-cer-ces no di-vi-no Ser, Su-aex-ten-são ou su-aal-tu-ra ver? A-mor sem fim!
w: 2.~Quem po-dea-mor tão vas-to com-preen-der? Pois nem o céuo pô-de, en-fim, con-ter. Foi nes-te mun-do que se re-ve-lou: Je-sus so-fren-do so-brea cruz mos-trou Di-vi-noa-mor.  
w: 3.~Quem po-de dar a-do-ra-ção ca-paz A ti, que, sem li-mi-te, a-mor nos dás? A par do qual o par-cial lou-vor Que te-mos da-doao nos-so Sal-va-dor Pa-re-ce vão.  
w: 4.~Mas sem-pre nos en-si-nao teu a-mor Que,em-bo-ra fra-cos, te-mos no Se-nhor A fon-tei-nes-go-tá-vel dea-fei-ção, Que sa-bea voz do nos-so co-ra-ção A-pre-ci-ar.
W: 
W:
W: 1. Quem pode o teu imenso amor contar,
W: O Salvador Jesus, e esquadrinhar
W: Seus alicerces no divino Ser,
W: Sua extensão ou sua altura ver?
W: Amor sem fim!
W: 
W: 2. Quem pode amor tão vasto compreender?
W: Pois nem o céu o pôde, enfim, conter.
W: Foi neste mundo que se revelou:
W: Jesus sofrendo sobre a cruz mostrou
W: Divino amor.
W: 
W:
W:
W: 3. Quem pode dar adoração capaz
W: A ti, que, sem limite, amor nos dás?
W: A par do qual o parcial louvor
W: Que temos dado ao nosso Salvador
W: Parece vão.
W: 
W: 4. Mas sempre nos ensina o teu amor
W: Que, embora fracos, temos no Senhor
W: A fonte inesgotável de afeição,
W: Que sabe a voz do nosso coração
W: Apreciar.
W:         
W: 





